symbols/web/lock_clock/materialsymbolsrounded/lock_clock_wght300fill1_40px.svg

<svg xmlns="http://www.w3.org/2000/svg" height="40" width="40"><path d="M14.792 14.292h10.416v-3.584q0-2.208-1.52-3.75Q22.167 5.417 20 5.417q-2.167 0-3.688 1.541-1.52 1.542-1.52 3.75Zm15.541 22.75q-3.041 0-5.187-2.125Q23 32.792 23 29.708q0-3.083 2.146-5.229t5.187-2.146q3.084 0 5.229 2.146 2.146 2.146 2.146 5.229 0 3.084-2.146 5.209-2.145 2.125-5.229 2.125Zm2.417-3.875q.208.166.5.187.292.021.5-.229.25-.208.229-.5-.021-.292-.229-.5l-2.708-2.583v-4.125q0-.292-.23-.521-.229-.229-.562-.229-.292 0-.521.229-.229.229-.229.521v4.333q0 .042.208.5Zm-22.625 2.666q-1.083 0-1.854-.771-.771-.77-.771-1.854V16.917q0-1.084.771-1.854.771-.771 1.854-.771h2.583v-3.584q0-3.083 2.125-5.229T20 3.333q3.042 0 5.167 2.146t2.125 5.229v3.584h2.583q1.083 0 1.854.771.771.77.771 1.854v2.75q-.625-.167-1.229-.209-.604-.041-1.188-.041-4.208.083-7.104 3.083t-2.896 7.208q0 1.667.479 3.25.48 1.584 1.563 2.875Z"/></svg>

<svg xmlns="http://www.w3.org/2000/svg" height="40" width="40"><path d="M14.792 14.292H25.208V10.708Q25.208 8.5 23.688 6.958Q22.167 5.417 20 5.417Q17.833 5.417 16.312 6.958Q14.792 8.5 14.792 10.708ZM30.333 37.042Q27.292 37.042 25.146 34.917Q23 32.792 23 29.708Q23 26.625 25.146 24.479Q27.292 22.333 30.333 22.333Q33.417 22.333 35.562 24.479Q37.708 26.625 37.708 29.708Q37.708 32.792 35.562 34.917Q33.417 37.042 30.333 37.042ZM32.75 33.167Q32.958 33.333 33.25 33.354Q33.542 33.375 33.75 33.125Q34 32.917 33.979 32.625Q33.958 32.333 33.75 32.125L31.042 29.542V25.417Q31.042 25.125 30.812 24.896Q30.583 24.667 30.25 24.667Q29.958 24.667 29.729 24.896Q29.5 25.125 29.5 25.417V29.75Q29.5 29.792 29.708 30.25ZM10.125 35.833Q9.042 35.833 8.271 35.062Q7.5 34.292 7.5 33.208V16.917Q7.5 15.833 8.271 15.063Q9.042 14.292 10.125 14.292H12.708V10.708Q12.708 7.625 14.833 5.479Q16.958 3.333 20 3.333Q23.042 3.333 25.167 5.479Q27.292 7.625 27.292 10.708V14.292H29.875Q30.958 14.292 31.729 15.063Q32.5 15.833 32.5 16.917V19.667Q31.875 19.5 31.271 19.458Q30.667 19.417 30.083 19.417Q25.875 19.5 22.979 22.5Q20.083 25.5 20.083 29.708Q20.083 31.375 20.562 32.958Q21.042 34.542 22.125 35.833Z"/></svg>
